X:7405
T:Hunters Bog
Z:Jack Campin <http://www.purr.demon.co.uk/jack/> version 1.0 September 2001
N:Where GS played as a child
C:Pipe Major George S. McLennan
S:Gordon Highlanders Pipe Music Collection volume II
B:NLS Mus.D.s.19
R:Reel
M:C|
L:1/8
Q:1/2=88
K:Hp
 {ag}a2 {ef}ec   {gde}dB{G}B{d}c|{gAGAG}A2 {g}c{d}A  {g}B{d}G{e}G{d}B|\
 {ag}a2 {ef}ec   {gde}dB{G}B{d}c|{gAGAG}A2 {d}c{e}B  {g}ce{g}fg      |
 {ag}a2 {ef}ec   {gde}dB{g}fd   |    {g}c{d}A{gef}ec {g}B{d}G{gde}dB |\
 {ag}a2 {ef}ec     {g}df{g}Bd   |    {g}ce{gde}dB    {g}ce{ag}a2    ||
     ef{g}de   {gAGAG}A2{d}ce   |  {gde}dc{g}B{d}A   {g}B{d}G{e}G{d}B|\
{gef}ec{gde}dB {gAGAG}A2{d}ce   |    {g}de{g}c{d}B   {g}ce{ag}a2     |
     ef{g}de   {gAGAG}A2{d}ce   |    {g}de{g}cd      {g}B{d}G{gde}dB |\
  {g}ef{g}de       {g}ceaf      |    {g}ef{gde}dB    {g}ce{ag}a2    |]
